svg/part/father_christmas_fill.svg

<?xml version="1.0" encoding="UTF-8"?>
<svg width="24px" height="24px" viewBox="0 0 24 24" version="1.1" xmlns="http://www.w3.org/2000/svg" xmlns:xlink="http://www.w3.org/1999/xlink">
    <title>father_christmas_fill</title>
    <g id="Icon" stroke="none" stroke-width="1" fill="none" fill-rule="evenodd">
        <g id="Part" transform="translate(-48.000000, -240.000000)">
            <g id="father_christmas_fill" transform="translate(48.000000, 240.000000)">
                <path d="M24,0 L24,24 L0,24 L0,0 L24,0 Z M12.5935,23.2578 L12.5819,23.2595 L12.5109,23.295 L12.4919,23.2987 L12.4767,23.295 L12.4057,23.2595 C12.3958,23.2564 12.387,23.259 12.3821,23.2649 L12.378,23.2758 L12.3609,23.7031 L12.3659,23.7235 L12.3769,23.7357 L12.4805,23.8097 L12.4953,23.8136 L12.5071,23.8097 L12.6107,23.7357 L12.6233,23.7197 L12.6267,23.7031 L12.6096,23.2758 C12.6076,23.2657 12.601,23.2593 12.5935,23.2578 Z M12.8584,23.1453 L12.8445,23.1473 L12.6598,23.2397 L12.6499,23.2499 L12.6472,23.2611 L12.6651,23.6906 L12.6699,23.7034 L12.6784,23.7105 L12.8793,23.8032 C12.8914,23.8069 12.9022,23.803 12.9078,23.7952 L12.9118,23.7812 L12.8777,23.1665 C12.8753,23.1546 12.8674,23.147 12.8584,23.1453 Z M12.143,23.1473 C12.1332,23.1424 12.1222,23.1453 12.1156,23.1526 L12.1099,23.1665 L12.0758,23.7812 C12.0751,23.7927 12.0828,23.8019 12.0926,23.8046 L12.1083,23.8032 L12.3092,23.7105 L12.3186,23.7024 L12.3225,23.6906 L12.3404,23.2611 L12.3372,23.2485 L12.3278,23.2397 L12.143,23.1473 Z" id="MingCute" fill-rule="nonzero"></path>
                <path d="M17.9072,4.0705 C18.0972,4.02426 18.2958,3.99976 18.5001,3.99976 C19.8808,3.99976 21.0001,5.11904 21.0001,6.49976 C21.0001,7.37955 20.5457,8.15319 19.8587,8.59875 L19.952,9.1885 L19.952,9.1885 C20.3777,10.4657 20.5434,11.88 20.5061,13.2216 C20.463,14.7699 20.0596,16.5866 18.6419,17.768 C18.34465,18.0157 18.07655,18.2539 17.8276625,18.4838125 L17.3525597,18.9329468 L17.3525597,18.9329468 L16.9887,19.2866 C16.6116,19.6552 16.234,20.0241 15.8287,20.3618 C14.8853,21.1478 13.8484,21.7051 12.1701,21.9855 C12.0597,22.0045 11.9425,22.0046 11.8321,21.9856 C10.1529,21.7052 9.11578,21.1479 8.17244,20.3618 C7.90238,20.1367333 7.64465333,19.8977556 7.39116222,19.6542889 L6.64902769,18.9328889 L6.64902769,18.9328889 L6.1740575,18.4838 C5.92523,18.2539 5.657175,18.0157 5.35993,17.768 C3.94226,16.5866 3.53887,14.7699 3.49577,13.2216 C3.454834,11.7512267 3.73036396,10.3199662 3.98759187,9.40128265 L4.05145,9.18356 L4.1684512,8.8459088 L4.1684512,8.8459088 L4.28374539,8.53624795 L4.28374539,8.53624795 L4.42821825,8.17490175 C4.71948867,7.47341688 5.15503333,6.58033333 5.71926,5.87505 C6.4193,4.99999 7.81144,3.44749 9.90839,2.68498 C12.043,1.90877 14.7394,2.00998 17.9072,4.0705 Z M15.5540015,13.6868246 L15.5241,13.7997 C15.418225,14.2619625 15.2346391,14.7615109 14.9307352,15.1388369 L14.796703,15.28728 L14.7032111,15.331318 C14.4676568,15.4031981 14.1411198,15.2729414 13.9268593,15.1588635 L13.5656424,14.9520776 C13.2159448,14.7590792 12.7727846,14.5574764 12.2359217,14.5100913 L11.9964,14.4997 C11.34216,14.4997 10.824176,14.73138 10.4228384,14.955892 L10.1434,15.1192 C9.90019,15.2648 9.47665,15.4709 9.20325,15.2884 C8.86823,14.9535375 8.65771594,14.47045 8.53013246,14.0016605 L8.48041,13.8021 C8.37134,13.2611 7.84455,12.9106 7.30335,13.0193 C6.76187,13.1279 6.4112,13.6559 6.51988,14.1974 C6.70725,15.1244 7.11842,16.0322 7.79303,16.7068 C8.31386,17.2276 9.00764,17.3376 9.49634,17.3334 C9.99152,17.3291 10.5109,17.2076 10.8825,17.0029 L11.0101875,16.928225 L11.0101875,16.928225 L11.1402,16.8468 C11.3682857,16.7024571 11.6082735,16.5505469 11.8660198,16.5100898 L12.0001,16.4997 C12.2173143,16.4997 12.423151,16.5894959 12.6207808,16.7018866 L12.8542,16.8433 C12.9486,16.9022 13.0413,16.9601 13.1327,17.009 C13.4953,17.2027 14.0072,17.3244 14.5014,17.3302 C14.9871,17.3358 15.684,17.2301 16.2072,16.7068 C16.8809,16.0331 17.2922,15.1261 17.4834,14.2013 C17.5928,13.6666 17.2387,13.1289 16.7035,13.0198 C16.2011429,12.9174714 15.7099949,13.2112582 15.5540015,13.6868246 L15.5540015,13.6868246 Z M10.0001,9.99976 C9.44784,9.99976 9.00012,10.4475 9.00012,10.9998 C9.00012,11.552 9.44784,11.9998 10.0001,11.9998 C10.5524,11.9998 11.0001,11.552 11.0001,10.9998 C11.0001,10.4475 10.5524,9.99976 10.0001,9.99976 Z M14.0001,9.99976 C13.4478,9.99976 13.0001,10.4475 13.0001,10.9998 C13.0001,11.552 13.4478,11.9998 14.0001,11.9998 C14.5524,11.9998 15.0001,11.552 15.0001,10.9998 C15.0001,10.4475 14.5524,9.99976 14.0001,9.99976 Z M7.23571,6.28717 C6.69897,6.15705 6.15838,6.48668 6.02826,7.02342 C5.89814,7.56016 6.22777,8.10075 6.76451,8.23087 L7.2682009,8.34933764 L7.2682009,8.34933764 L7.84779531,8.47653797 C7.94980773,8.49804574 8.05429885,8.51960237 8.16092667,8.54105036 L8.82359838,8.66717451 C9.84785934,8.85062508 10.9897938,8.99976 12.0001,8.99976 C13.3336385,8.99976 14.8912775,8.74047633 16.1004509,8.48740624 L16.722,8.35158 L16.722,8.35158 C17.2605,8.22903 17.5977,7.69314 17.4752,7.15462 C17.3526,6.6161 16.8167,6.27889 16.2782,6.40144 C15.044,6.6823 13.3388,6.99976 12.0001,6.99976 C10.7923,6.99976 9.29253811,6.74199296 8.11489816,6.48840492 L7.50818603,6.35207304 C7.41362199,6.32994495 7.32264286,6.308245 7.23571,6.28717 Z M18.5001,5.99976 C18.224,5.99976 18.0001,6.22361 18.0001,6.49976 C18.0001,6.7759 18.224,6.99976 18.5001,6.99976 C18.7763,6.99976 19.0001,6.7759 19.0001,6.49976 C19.0001,6.22361 18.7763,5.99976 18.5001,5.99976 Z" id="形状" fill="#09244B"></path>
            </g>
        </g>
    </g>
</svg>

<svg xmlns="http://www.w3.org/2000/svg" width="24" height="24"><g fill="none" fill-rule="evenodd"><path d="M24 0v24H0V0h24ZM12.594 23.258l-.012.002-.071.035-.02.004-.014-.004-.071-.036c-.01-.003-.019 0-.024.006l-.004.01-.017.428.005.02.01.013.104.074.015.004.012-.004.104-.074.012-.016.004-.017-.017-.427c-.002-.01-.009-.017-.016-.018Zm.264-.113-.014.002-.184.093-.01.01-.003.011.018.43.005.012.008.008.201.092c.012.004.023 0 .029-.008l.004-.014-.034-.614c-.003-.012-.01-.02-.02-.022Zm-.715.002a.023.023 0 0 0-.027.006l-.006.014-.034.614c0 .012.007.02.017.024l.015-.002.201-.093.01-.008.003-.011.018-.43-.003-.012-.01-.01-.184-.092Z"/><path fill="#09244B" d="M17.907 4.07a2.5 2.5 0 0 1 1.951 4.528l.094.59c.426 1.278.591 2.692.554 4.034-.043 1.548-.446 3.365-1.864 4.546-.297.248-.565.486-.814.716l-.475.449-.364.354c-.377.368-.755.737-1.16 1.075-.944.786-1.98 1.343-3.659 1.624a1.01 1.01 0 0 1-.338 0c-1.68-.28-2.716-.838-3.66-1.624a14.96 14.96 0 0 1-.78-.708l-.743-.721-.475-.45c-.249-.23-.517-.467-.814-.715-1.418-1.181-1.821-2.998-1.864-4.546-.041-1.47.234-2.902.492-3.82l.063-.218.117-.338.116-.31.144-.361c.291-.702.727-1.595 1.291-2.3.7-.875 2.092-2.428 4.19-3.19 2.134-.776 4.83-.675 7.998 1.386Zm-2.353 9.617-.03.113c-.106.462-.29.962-.593 1.339l-.134.148-.094.044c-.235.072-.562-.058-.776-.172l-.361-.207c-.35-.193-.793-.395-1.33-.442l-.24-.01c-.654 0-1.172.231-1.573.456l-.28.163c-.243.146-.666.352-.94.17-.335-.335-.545-.819-.673-1.287l-.05-.2a1 1 0 1 0-1.96.395c.187.927.598 1.835 1.273 2.51.52.52 1.215.63 1.703.626.496-.004 1.015-.125 1.386-.33l.128-.075.13-.081c.228-.145.468-.296.726-.337L12 16.5c.217 0 .423.09.62.202l.234.141c.095.06.187.117.279.166.362.194.874.315 1.368.321.486.006 1.183-.1 1.706-.623.674-.674 1.085-1.58 1.276-2.506a1.01 1.01 0 0 0-.78-1.181 1 1 0 0 0-1.149.667ZM10 10a1 1 0 1 0 0 2 1 1 0 0 0 0-2Zm4 0a1 1 0 1 0 0 2 1 1 0 0 0 0-2ZM7.236 6.287a1 1 0 1 0-.471 1.944l.503.118.58.128.313.064.663.126C9.848 8.851 10.99 9 12 9c1.334 0 2.891-.26 4.1-.513l.622-.135a1 1 0 0 0-.444-1.95C15.044 6.681 13.338 7 12 7c-1.208 0-2.707-.258-3.885-.512l-.607-.136a35.144 35.144 0 0 1-.272-.065ZM18.5 6a.5.5 0 1 0 0 1 .5.5 0 0 0 0-1Z"/></g></svg>
